X: 15024
T: George Peoples'
R: reel
M: 4/4
K: Dmajor
|:B,EEF FGEC|DEFA defe|dBAF DEFA|BdAF FGFD|
B,EEF FGEC|DEFD A,DFD|(3=CCC EC DEFA|1 BdAF E=CEE:|2 BdAF EFGA||
|:Bee^d egf=d|edBc dBAF|G2 BG FAde|fbfe dBAd|
Bee^d egf=d|edBc dBAa|g2 fd edBe|dBAF EFGA:|
|:Be^df efga|be (3eee d'ec'e|be (3eee defg|fd (3ddd gdfd|
dee^d egf=d|edBc dBAa|(3gag fd edBe|1 dBAF EFGA:|2 dBAF E=C2 E||

